svg/emoji_u1f3e6.svg

<svg width="128" height="128" viewBox="0 0 128 128" fill="none" xmlns="http://www.w3.org/2000/svg">
<path d="M64.6402 3.83989C62.9702 4.03989 10.9202 38.9399 10.6202 39.9999C10.3202 41.0699 10.2002 52.1899 10.2002 52.1899L16.9102 54.3199L16.9402 63.1599L20.5302 70.5099V101.58L17.8502 107.43L10.5002 109.6V114.86L4.74023 116.61C4.74023 116.61 4.82023 121.12 4.82023 121.87C4.82023 122.62 5.07023 124.21 8.08023 124.21C11.0902 124.21 120.95 123.7 122.06 123.7C123.17 123.7 124.32 123.48 124.38 121.49C124.44 119.5 124.32 116.69 124.32 116.69L118.74 113.93L118.72 109.52L109.64 106.72L107.45 100.52L107.48 71.3099L110.96 63.9699L112.01 61.9799V54.0799L117.86 51.8699C117.86 51.8699 117.97 40.4399 117.8 40.1099C117.65 39.7899 66.0202 3.67989 64.6402 3.83989Z" fill="#CDDFEE" style="fill:#CDDFEE;fill:color(display-p3 0.8039 0.8745 0.9333);fill-opacity:1;"/>
<path d="M15.3298 42.3201C15.0198 43.0901 14.9398 48.7701 15.2198 49.0501C15.4998 49.3301 112.16 49.1801 112.49 48.9101C112.82 48.6401 112.87 42.4701 112.71 42.0901C112.55 41.7101 85.2998 23.1001 85.2998 23.1001L43.1698 23.3101C43.1598 23.3101 15.5098 41.8601 15.3298 42.3201Z" fill="#94ADBC" style="fill:#94ADBC;fill:color(display-p3 0.5804 0.6784 0.7373);fill-opacity:1;"/>
<path d="M4.7402 116.63C4.6502 116.41 4.7402 115.37 4.7402 114.95C4.7402 114.53 5.1402 114.05 6.0402 114.05C6.9402 114.05 121.18 113.89 121.74 113.91C123.15 113.96 124.1 114.26 124.24 115.16C124.38 116.06 124.33 116.71 124.33 116.71L4.7402 116.63Z" fill="#94ADBC" style="fill:#94ADBC;fill:color(display-p3 0.5804 0.6784 0.7373);fill-opacity:1;"/>
<path d="M118.73 109.53L10.5098 109.61C10.5098 109.61 10.5498 108.5 10.5498 108.12C10.5498 107.74 10.7498 107.12 12.0398 107.12C13.3298 107.12 115.96 106.73 116.84 106.73C117.72 106.73 118.68 107.14 118.8 107.75C118.92 108.36 118.73 109.53 118.73 109.53Z" fill="#94ADBC" style="fill:#94ADBC;fill:color(display-p3 0.5804 0.6784 0.7373);fill-opacity:1;"/>
<path d="M108.26 102.83L107.46 100.49L20.5099 100.47L19.8599 103.08L108.26 102.83Z" fill="#94ADBC" style="fill:#94ADBC;fill:color(display-p3 0.5804 0.6784 0.7373);fill-opacity:1;"/>
<path d="M19.5098 68.3799L108.77 68.6899L107.49 71.3099L20.5398 71.6399L19.5098 68.3799Z" fill="#94ADBC" style="fill:#94ADBC;fill:color(display-p3 0.5804 0.6784 0.7373);fill-opacity:1;"/>
<path d="M17.5598 64.7C17.5598 64.7 16.7698 64.13 16.6398 63.38C16.5098 62.63 16.8598 62.19 16.8598 62.19L112.02 61.98C112.02 61.98 112.38 62.72 112.07 63.24C111.76 63.77 110.88 64.25 110.88 64.25L17.5598 64.7Z" fill="#94ADBC" style="fill:#94ADBC;fill:color(display-p3 0.5804 0.6784 0.7373);fill-opacity:1;"/>
<path d="M10.2002 52.1901L117.87 51.8701C117.87 51.8701 117.94 52.9001 117.87 53.3301C117.81 53.7601 117.25 54.1401 115.82 54.1401C114.39 54.1401 114.39 54.1401 114.39 54.1401C114.39 54.1401 13.6002 54.6401 12.4802 54.6401C11.3602 54.6401 10.5602 54.0201 10.3702 53.5201C10.2602 53.1901 10.2002 52.1901 10.2002 52.1901Z" fill="#94ADBC" style="fill:#94ADBC;fill:color(display-p3 0.5804 0.6784 0.7373);fill-opacity:1;"/>
<path d="M18.0098 45.0302L40.6598 29.7402L42.1798 45.3302L18.0098 45.0302Z" fill="#657582" style="fill:#657582;fill:color(display-p3 0.3961 0.4588 0.5098);fill-opacity:1;"/>
<path d="M87.5499 29.23L110.23 45.23H86.9399L87.5499 29.23Z" fill="#657582" style="fill:#657582;fill:color(display-p3 0.3961 0.4588 0.5098);fill-opacity:1;"/>
<path d="M33.41 64.6301L37.14 64.6201L40.06 71.6301L39.79 100.49L37.36 107.03L33.02 107.04L30.63 100.53L30.52 71.5701L33.41 64.6301Z" fill="#54636E" style="fill:#54636E;fill:color(display-p3 0.3294 0.3882 0.4314);fill-opacity:1;"/>
<path d="M53.2701 64.5299L49.5601 71.4699L49.8401 100.49L52.0401 106.98L76.2701 106.88L78.4501 100.49L78.5101 71.4099L75.6801 64.4199L53.2701 64.5299Z" fill="#54636E" style="fill:#54636E;fill:color(display-p3 0.3294 0.3882 0.4314);fill-opacity:1;"/>
<path d="M91.3698 64.3501L94.6598 64.3301L97.5698 71.3401L97.5598 100.5L95.8698 106.82L90.3798 106.83L88.6998 100.5L88.5698 71.3701L91.3698 64.3501Z" fill="#54636E" style="fill:#54636E;fill:color(display-p3 0.3294 0.3882 0.4314);fill-opacity:1;"/>
<path d="M54.6201 106.97V84.7202L74.1401 84.9102L74.1801 106.91L54.6201 106.97Z" fill="#6BA4AE" style="fill:#6BA4AE;fill:color(display-p3 0.4196 0.6431 0.6824);fill-opacity:1;"/>
<path d="M63.26 83.71L63.25 106.94L65.27 106.93V84.05L63.26 83.71Z" fill="#A5D0D7" style="fill:#A5D0D7;fill:color(display-p3 0.6471 0.8157 0.8431);fill-opacity:1;"/>
<path d="M54.6201 85.7802V80.2002H74.1401V85.7802C74.1401 85.7802 54.7901 85.6102 54.6201 85.7802Z" fill="#95ACBC" style="fill:#95ACBC;fill:color(display-p3 0.5843 0.6745 0.7373);fill-opacity:1;"/>
<path d="M54.6201 80.2002H74.1401C74.1401 80.2002 74.2201 78.4602 72.4101 78.2902C70.6001 78.1202 57.3001 78.2602 56.1801 78.2902C54.5101 78.3402 54.6201 80.2002 54.6201 80.2002Z" fill="#CCDEED" style="fill:#CCDEED;fill:color(display-p3 0.8000 0.8706 0.9294);fill-opacity:1;"/>
<path d="M64.3899 11.11C49.8999 11.2 38.4299 22.66 38.9199 37.15C39.4099 51.64 52.6999 61.83 64.3899 61.74C76.6599 61.65 89.5799 52.87 90.1599 37.07C90.7499 21.28 77.4499 11.02 64.3899 11.11Z" fill="#F2BC1A" style="fill:#F2BC1A;fill:color(display-p3 0.9490 0.7373 0.1020);fill-opacity:1;"/>
<path d="M64.4801 14.58C52.3501 14.66 42.6401 24.61 43.0501 37.23C43.4501 49.85 54.1301 57.85 63.9201 57.94C75.2101 58.04 85.6001 50.66 86.0801 36.91C86.5601 23.16 75.4101 14.51 64.4801 14.58Z" fill="#FFF176" style="fill:#FFF176;fill:color(display-p3 1.0000 0.9451 0.4627);fill-opacity:1;"/>
<path d="M60.9802 21.6299C60.9802 21.6299 60.7602 17.7699 61.0302 17.4399C61.3002 17.1099 62.4002 17.1099 64.5302 17.1099C66.6702 17.1099 67.5402 17.1099 67.8702 17.3799C68.2002 17.6499 68.0302 21.8699 68.0302 21.8699C68.0302 21.8699 70.9302 22.9599 72.7402 24.3599C74.6602 25.8399 76.0302 27.8099 75.9202 28.1399C75.8102 28.4699 71.9802 31.8099 71.4302 31.6999C70.8802 31.5899 67.7602 27.9399 64.0402 27.6999C58.1302 27.3199 58.1802 31.9199 61.8502 33.1799C65.5202 34.4399 77.0902 35.4399 76.6402 44.6499C76.2602 52.3999 68.4302 52.9499 68.4302 52.9499C68.4302 52.9499 68.6502 55.8499 68.4302 56.0199C68.2102 56.1899 61.3102 56.2899 61.0902 55.9699C60.8702 55.6499 61.0402 52.6799 61.0402 52.6799C61.0402 52.6799 57.9702 52.0799 55.4502 50.3799C52.9302 48.6799 51.1202 46.4399 51.0702 46.1599C51.0202 45.8899 55.5102 42.1099 55.8302 41.9999C56.1502 41.8899 60.7202 46.3899 65.0302 46.7599C69.4102 47.1399 71.2702 42.8199 65.1902 40.9599C59.1102 39.0999 51.9402 37.5099 52.2702 29.8999C52.6002 22.1699 60.9802 21.6299 60.9802 21.6299Z" fill="#D8900E" style="fill:#D8900E;fill:color(display-p3 0.8471 0.5647 0.0549);fill-opacity:1;"/>
</svg>

<?xml version="1.0" encoding="utf-8"?>
<!-- Generator: Adobe Illustrator 25.2.3, SVG Export Plug-In . SVG Version: 6.00 Build 0)  -->
<svg version="1.1" id="Layer_2" xmlns="http://www.w3.org/2000/svg" xmlns:xlink="http://www.w3.org/1999/xlink" x="0px" y="0px"
	 viewBox="0 0 128 128" style="enable-background:new 0 0 128 128;" xml:space="preserve">
<path style="fill:#CDDFEE;" d="M64.64,3.84C62.97,4.04,10.92,38.94,10.62,40c-0.3,1.07-0.42,12.19-0.42,12.19l6.71,2.13l0.03,8.84
	l3.59,7.35v31.07l-2.68,5.85l-7.35,2.17v5.26l-5.76,1.75c0,0,0.08,4.51,0.08,5.26c0,0.75,0.25,2.34,3.26,2.34
	s112.87-0.51,113.98-0.51s2.26-0.22,2.32-2.21s-0.06-4.8-0.06-4.8l-5.58-2.76l-0.02-4.41l-9.08-2.8l-2.19-6.2l0.03-29.21l3.48-7.34
	l1.05-1.99v-7.9l5.85-2.21c0,0,0.11-11.43-0.06-11.76C117.65,39.79,66.02,3.68,64.64,3.84z"/>
<path style="fill:#94ADBC;" d="M15.33,42.32c-0.31,0.77-0.39,6.45-0.11,6.73c0.28,0.28,96.94,0.13,97.27-0.14
	c0.33-0.27,0.38-6.44,0.22-6.82S85.3,23.1,85.3,23.1l-42.13,0.21C43.16,23.31,15.51,41.86,15.33,42.32z"/>
<path style="fill:#94ADBC;" d="M4.74,116.63c-0.09-0.22,0-1.26,0-1.68s0.4-0.9,1.3-0.9s115.14-0.16,115.7-0.14
	c1.41,0.05,2.36,0.35,2.5,1.25c0.14,0.9,0.09,1.55,0.09,1.55L4.74,116.63z"/>
<path style="fill:#94ADBC;" d="M118.73,109.53l-108.22,0.08c0,0,0.04-1.11,0.04-1.49c0-0.38,0.2-1,1.49-1s103.92-0.39,104.8-0.39
	s1.84,0.41,1.96,1.02S118.73,109.53,118.73,109.53z"/>
<polygon style="fill:#94ADBC;" points="108.26,102.83 107.46,100.49 20.51,100.47 19.86,103.08 "/>
<polygon style="fill:#94ADBC;" points="19.51,68.38 108.77,68.69 107.49,71.31 20.54,71.64 "/>
<path style="fill:#94ADBC;" d="M17.56,64.7c0,0-0.79-0.57-0.92-1.32c-0.13-0.75,0.22-1.19,0.22-1.19l95.16-0.21
	c0,0,0.36,0.74,0.05,1.26c-0.31,0.53-1.19,1.01-1.19,1.01L17.56,64.7z"/>
<path style="fill:#94ADBC;" d="M10.2,52.19l107.67-0.32c0,0,0.07,1.03,0,1.46c-0.06,0.43-0.62,0.81-2.05,0.81c-1.43,0-1.43,0-1.43,0
	s-100.79,0.5-101.91,0.5s-1.92-0.62-2.11-1.12C10.26,53.19,10.2,52.19,10.2,52.19z"/>
<polygon style="fill:#657582;" points="18.01,45.03 40.66,29.74 42.18,45.33 "/>
<polygon style="fill:#657582;" points="87.55,29.23 110.23,45.23 86.94,45.23 "/>
<polygon style="fill:#54636E;" points="33.41,64.63 37.14,64.62 40.06,71.63 39.79,100.49 37.36,107.03 33.02,107.04 30.63,100.53 
	30.52,71.57 "/>
<polygon style="fill:#54636E;" points="53.27,64.53 49.56,71.47 49.84,100.49 52.04,106.98 76.27,106.88 78.45,100.49 78.51,71.41 
	75.68,64.42 "/>
<polygon style="fill:#54636E;" points="91.37,64.35 94.66,64.33 97.57,71.34 97.56,100.5 95.87,106.82 90.38,106.83 88.7,100.5 
	88.57,71.37 "/>
<polygon style="fill:#6BA4AE;" points="54.62,106.97 54.62,84.72 74.14,84.91 74.18,106.91 "/>
<polygon style="fill:#A5D0D7;" points="63.26,83.71 63.25,106.94 65.27,106.93 65.27,84.05 "/>
<path style="fill:#95ACBC;" d="M54.62,85.78V80.2h19.52v5.58C74.14,85.78,54.79,85.61,54.62,85.78z"/>
<path style="fill:#CCDEED;" d="M54.62,80.2h19.52c0,0,0.08-1.74-1.73-1.91s-15.11-0.03-16.23,0C54.51,78.34,54.62,80.2,54.62,80.2z"
	/>
<path style="fill:#CDDFEE;" d="M64.39,11.11C49.9,11.2,38.43,22.66,38.92,37.15S52.7,61.83,64.39,61.74
	c12.27-0.09,25.19-8.87,25.77-24.67C90.75,21.28,77.45,11.02,64.39,11.11z"/>
<path style="fill:#94ADBC;" d="M64.48,14.58c-12.13,0.08-21.84,10.03-21.43,22.65c0.4,12.62,11.08,20.62,20.87,20.71
	c11.29,0.1,21.68-7.28,22.16-21.03S75.41,14.51,64.48,14.58z"/>
<path style="fill:#024FAC;" d="M60.98,21.63c0,0-0.22-3.86,0.05-4.19c0.27-0.33,1.37-0.33,3.5-0.33c2.14,0,3.01,0,3.34,0.27
	s0.16,4.49,0.16,4.49s2.9,1.09,4.71,2.49c1.92,1.48,3.29,3.45,3.18,3.78c-0.11,0.33-3.94,3.67-4.49,3.56
	c-0.55-0.11-3.67-3.76-7.39-4c-5.91-0.38-5.86,4.22-2.19,5.48c3.67,1.26,15.24,2.26,14.79,11.47c-0.38,7.75-8.21,8.3-8.21,8.3
	s0.22,2.9,0,3.07s-7.12,0.27-7.34-0.05s-0.05-3.29-0.05-3.29s-3.07-0.6-5.59-2.3c-2.52-1.7-4.33-3.94-4.38-4.22
	c-0.05-0.27,4.44-4.05,4.76-4.16s4.89,4.39,9.2,4.76c4.38,0.38,6.24-3.94,0.16-5.8c-6.08-1.86-13.25-3.45-12.92-11.06
	C52.6,22.17,60.98,21.63,60.98,21.63z"/>
</svg>
